X:1
T:Tantum ergo
T:Tantum ergo
T:MH 404
T:J Michael Haydn
T:BSB Mms 7083 autograph
T:BSB Mms 7083 autograph
T:BSB Mms 7083 autograph
C:J Michael Haydn
Z:BSB Mms 7083 autograph
%%score [ ( 1 2 ) ( 3 4 ) ] { ( 5 7 9 10 ) | ( 6 8 ) }
L:1/8
Q:1/2=60
M:2/2
K:C
V:1 treble nm="Voice"
V:2 treble 
V:3 bass nm="Voice"
V:4 bass 
V:5 treble nm="Organ"
V:7 treble 
V:9 treble 
V:10 treble 
V:6 bass 
V:8 bass 
V:1
"^[] Adag. e Maestoso" c6 G2 | A4 G4 | z8 | z8 | G6 f2 | f4 e4 | z8 | z8 | e6 e2 | e4 f2 d2 | %10
w: Tan- tum|er- go|||Sa- cra-|men- tum|||ve- ne-|re- mur _|
w: Ge- ni-|to- ri|||Ge- ni-|to- que|||laus et|ju- bi- *|
 c4 B2 B2 | c4 z4 | z8 | z4 G3 G | A4 B4 | z4 d4- | d2 e2 A2 c2 | B4 z4 | z8 | B4 c4 | %20
w: cer- * nu-|i||et an-|ti- quum|do-|* cu- men- *|tum||no- vo|
w: la- * ti-|o||Sa- lus|ho- nor|vir-|* tus quo- *|que||sit et|
 d2 g2 e2 g2 | G4{B} A3 G | G4 z4 | z8 | z8 | B6 B2 | c4 G4 | z8 | z8 | c6 _B2 | _B4 A4 | z8 | z8 | %33
w: ce- * dat _|ri- * tu-|i|||prae- stet|fi- des|||sup- ple-|men- tum|||
w: be- * ne- *|di- * cti-|o|||Pro- ce-|den- ti~|||ab u-|tro- que|||
 =B6 B2 | c4 c4 | d4 e3 e | !fermata!f8 | e6 e2 | f6 d2 | c6 B3/2 c/ | c4 z4 :| z8 | z8 | z8 | z8 | %45
w: sen- su-|um de-|fe- * ctu-|i|sen- su-|um de-|fe- * ctu-|i|||||
w: com- par-|sit lau-|da- * ti-|o|com- par-|sit lau-|da- * ti-|o|||||
 G8 | !fermata!E8 |] %47
w: A-|men|
w: ||
V:2
 E4 E4 | F4 E4 | x8 | x8 | D4 G4 | G4 G4 | x8 | x8 | E4 E4 | A4 A4 | G6 G2 | G4 x4 | x8 | x4 E3 E | %14
 D4 D4 | x4 B4- | B2 c2 ^F2 A2 | G4 x4 | x8 | G4 G4 | G2 D2 G2 E2 | D4 ^F3 G | G4 x4 | x8 | x8 | %25
 G6 G2 | G4 G4 | x8 | x8 | G6 G2 | G4 F4 | x8 | x8 | G6 G2 | G4 G4 | F2 GF E2 G2 | G8 | G6 G2 | %38
 F4 A4 | G4 F3 F | E4 x4 :| x8 | x8 | x8 | x8 | B,8 | C8 |] %47
V:3
 G,4 C4 | C4 C4 | z8 | z8 | F4 D4 | D4 C4 | z8 | z8 | C4 B,4 | C4 D4 | E4 F2 F2 | E4 z4 | z8 | %13
 z4 C3 C | ^F,4 G,4 | z4 D2 B,G, | ^F,4 D4 | D4 z4 | z8 | D4 E4 | D4 C4 | B,4 C3 B, | B,4 z4 | z8 | %24
 z8 | D6 D2 | C4 C4 | z8 | z8 | C6 C2 | C4 C4 | z8 | z8 | D6 D2 | C4 G,4 | B,4 C3 C | D8 | C6 C2 | %38
 C4 D4 | E4 D3 D | C4 z4 :| z8 | z8 | z8 | z8 | D,4 G,4 | G,8 |] %47
V:4
 C,4 C,4 | F,4 C,4 | x8 | x8 | B,,4 B,,4 | C,4 C,4 | x8 | x8 | A,4 ^G,4 | A,4 F,4 | =G,6 G,2 | %11
w: |||||||||||
w: |||||||||||
 C,4 x4 | x8 | x4 C,3 C, | C,4 B,,4 | x4 G,2 G,2 | D,8 | G,4 x4 | x8 | G,4 E,4 | B,,4 C,4 | %21
w: ||||do- cu-|men-|tum||||
w: ||||vir- tus|quo-|que||||
 D,6 D,2 | G,,4 x4 | x8 | x8 | G,4 =F,4 | E,4 E,4 | x8 | x8 | E,4 E,4 | F,4 F,4 | x8 | x8 | %33
w: ||||||||||||
w: ||||||||||||
 F,6 F,2 | E,4 E,4 | D,4 C,2 C,2 | B,,8 | C,4 _B,4 | A,4 F,4 | G,6 G,2 | C,4 x4 :| x8 | x8 | x8 | %44
w: |||||||||||
w: |||||||||||
 x8 | G,,8 | C,8 |] %47
w: |||
w: |||
V:5
"^Coppula con Flauto" x8 | x8 | c'6 [eg]2 | ([eg]2{[gb]} [fa]2) [eg]4 | x8 | x8 | g6 [fb]2 | %7
 ([fb]3 [ec']) [ec']4 | x8 | x8 | x8 | z2 c2 [Bd]2 [ce]2 | [df]2 B2 c2 [Bd]2 |{[Bd]} [ce]4 x4 | %14
 x6 d>d | [ac']4 [gb]2 x2 | x8 | z [G,D][DG][GB] [Bd]4- | [Bd]2 [ce]2 A2 [Ac]2 | x8 | x8 | x8 | %22
 z2 [Bd]2 [Bg]2 [db]2 | c'2 a2 ^f2 a2 | (a4 !wedge!g2) (g/^f/g/d/) | x8 | x8 | e4- e[fa][eg][df] | %28
{efg} [df]3 [ce] [ce]4 | x8 | x8 | a4{g} f2 ed | c3 B B4 | z2 [Bg]2 [Bg]2 [Bg]2 | %34
 z2 [cg]2 [cg]2 [cg]2 | z [fa][fa][fa] z [eg][eg][eg] | z [dg][dg][df] !fermata![df]4 | x8 | x8 | %39
 x8 | z2 c2 [Bd]2 [ce]2 :| [eg]2 [df]2{e} f2{e} f2 |{!fermata!e!fermata!f!fermata!g} !fermata!Tf8 | %43
 [ce]4 [df]4 | [cg]4 [ca]2{g} fe/d/ | c4- c!invertedturn!c(ed) | ([Bd]4 c4) |] %47
V:6
 C,4 C,4 | F,4 C,4 | G6 x2 | F4 C4 | B,,4 B,,4 | C,4 C,4 | D6 G2 | G4 x4 | A,4 ^G,4 | A,4 F,4 | %10
 =G,4 G,,4 | C,2 E2 [DF]2 [CE]2 | C2 F2 E2 D2 | C4 C,4 | C,4 B,,2 [B,DG]2 | D6 x2 | D,4 D,4 | %17
 G,4 z G,B,G, | D4 D4 | G,4 E,4 | B,,4 C,4 | D,4 D,4 | G,,4 x4 | C4 D4 | G,6 z2 | G,4 =F,4 | %26
 E,4 E,4 | B,4 G,4 | C4 C,4 | E,4 E,4 | F,4 F,,4 | C2 ^C2 D2 F2 | E3 D D4 | F,4 F,4 | E,4 E,4 | %35
 D,4 C,4 | B,,2 B,,2 !fermata!B,,4 | C,4 _B,4 | A,4 F,4 | G,4 G,,4 | C,2 E,2 D,2 C,2 :| %41
 B,,2 G,2 x4 | x8 | z CCC z CCC | z CCC z CDF | E4 F4 |"_NB Senza strumenti di fiato" z2 G,2 C4 |] %47
V:7
 x8 | x8 | e6 c2 | c4 c4 | x8 | x8 | G4 B2 d2 | d3 c c4 | x8 | x8 | x8 | x2 G4 G2- | G2 G4 G2 | %13
 G4 x4 | x8 | x8 | x8 | x8 | x4 ^F2 F2 | x8 | x8 | x8 | x4 G4 | e4 c2 c2 | c4 B2 x2 | x8 | x8 | %27
 G4 B4 | B3 x G4 | x8 | x8 | A4 A4 | G4 G4 | x2 G2 G2 G2 | x2 G2 G2 G2 | x BBB x ccc | x GGG G4 | %37
 x8 | x8 | x8 | x2 G4 G2 :| G4 [GBd]2 [GBd]2 | [GBd]8 | G4 F4 | _B4 A4 | G6 [GB]2 | G8 |] %47
V:8
 x8 | x8 | C4 C4 | x8 | x8 | x8 | B,4 G,4 | C4 C4 | x8 | x8 | x8 | x8 | G,4 z2 G,2 | x8 | x8 | %15
 ^F,4 G,2 G,2 | x8 | x8 | x8 | x8 | x8 | x8 | x8 | x8 | x8 | x8 | x8 | x8 | x8 | x8 | x8 | %31
 F,4 F,4 | G,4 G,4 | x8 | x8 | x8 | x8 | x8 | x8 | x8 | x8 :| x8 | x8 | C,4 A,4 | E,4 F,4 | %45
 G,4 G,4 | C,8 |] %47
V:9
 x8 | x8 | x8 | x8 | x8 | x8 | x8 | x8 | x8 | x8 | x8 | x8 | x8 | x8 | x8 | x8 | x8 | x8 | x8 | %19
 x8 | x8 | x8 | x8 | G2 c2 A2 ^F2 | (^F4 G2) x2 | x8 | x8 | x8 | x8 | x8 | x8 | x8 | x8 | x8 | x8 | %35
 x8 | x8 | x8 | x8 | x8 | x8 :| x8 | x8 | x8 | x8 | x8 | F4 E4 |] %47
V:10
 x8 | x8 | x8 | x8 | x8 | x8 | x8 | x8 | x8 | x8 | x8 | x8 | x8 | x8 | x8 | x8 | x8 | x8 | x8 | %19
 x8 | x8 | x8 | x8 | x8 | d6 x2 | x8 | x8 | x8 | x8 | x8 | x8 | x8 | x8 | x8 | x8 | x8 | x8 | x8 | %38
 x8 | x8 | x8 :| x8 | x8 | x8 | x8 | x8 | x8 |] %47

